Origami/48x48/apps/standard-notes.svg

<svg width="48" height="48" version="1" xmlns="http://www.w3.org/2000/svg">
 <rect transform="matrix(0,-1,-1,0,0,0)" x="-45" y="-44" width="40" height="40" rx="2" ry="2" style="opacity:.2"/>
 <rect transform="matrix(0,-1,-1,0,0,0)" x="-44" y="-44" width="39" height="40" rx="2" ry="2" style="fill:#cccccc"/>
 <path d="m4 14v1h40v-1z" style="opacity:.2"/>
 <path d="m6 4c-1.108 0-2 0.892-2 2v8h40v-8c0-1.108-0.892-2-2-2z" style="fill:#086cd6"/>
 <path d="m10 21v2h28v-2zm0 5v2h22v-2zm0 5v2h26v-2zm0 5v2h18v-2z" style="opacity:.2"/>
 <path d="m6 4c-1.108 0-2 0.892-2 2v1c0-1.108 0.892-2 2-2h36c1.108 0 2 0.892 2 2v-1c0-1.108-0.892-2-2-2h-36z" style="fill:#ffffff;opacity:.2"/>
</svg>

<svg xmlns="http://www.w3.org/2000/svg" width="48" height="48" version="1">
 <rect style="opacity:0.2" width="40" height="40" x="-45" y="-44" rx="2" ry="2" transform="matrix(0,-1,-1,0,0,0)"/>
 <rect style="fill:#cccccc" width="39" height="40" x="-44" y="-44" rx="2" ry="2" transform="matrix(0,-1,-1,0,0,0)"/>
 <path style="opacity:0.2" d="m4 14v1h40v-1z"/>
 <path style="fill:#086cd6" d="M 6,4 C 4.892,4 4,4.892 4,6 V 14 H 44 V 6 C 44,4.892 43.108,4 42,4 Z"/>
 <path style="opacity:0.2" d="M 10,21 V 23 H 38 V 21 Z M 10,26 V 28 H 32 V 26 Z M 10,31 V 33 H 36 V 31 Z M 10,36 V 38 H 28 V 36 Z"/>
 <path style="opacity:0.2;fill:#ffffff" d="m6 4c-1.108 0-2 0.892-2 2v1c0-1.108 0.892-2 2-2h36c1.108 0 2 0.892 2 2v-1c0-1.108-0.892-2-2-2h-36z"/>
</svg>
